_includes/icons/color-check-file.svg

<svg fill="#666" height="50" viewBox="0 0 48 48" width="50" xmlns="http://www.w3.org/2000/svg"><path d="m40 45h-32v-42h22l10 10z" fill="#90caf9"/><path d="m38.5 14h-9.5v-9.5z" fill="#e1f5fe"/><path d="m48 38c0 5.523438-4.476562 10-10 10-5.523437 0-10-4.476562-10-10 0-5.523437 4.476563-10 10-10 5.523438 0 10 4.476563 10 10" fill="#43a047"/><path d="m42.492188 33.351563-5.691407 5.699218-2.726562-2.722656-2.125 2.128906 4.855469 4.84375 7.8125-7.828125z" fill="#dcedc8"/></svg>

<svg xmlns="http://www.w3.org/2000/svg" viewBox="0 0 48 48" width="50" height="50" fill="#666"><path d="M 40 45 L 8 45 L 8 3 L 30 3 L 40 13 Z" fill="#90caf9"/><path d="M 38.5 14 L 29 14 L 29 4.5 Z" fill="#e1f5fe"/><path d="M 48 38 C 48 43.523438 43.523438 48 38 48 C 32.476563 48 28 43.523438 28 38 C 28 32.476563 32.476563 28 38 28 C 43.523438 28 48 32.476563 48 38" fill="#43a047"/><path d="M 42.492188 33.351563 L 36.800781 39.050781 L 34.074219 36.328125 L 31.949219 38.457031 L 36.804688 43.300781 L 44.617188 35.472656 Z" fill="#dcedc8"/></svg>
